packages/web-icons/svgs/minion_pro_2.svg

<svg viewBox="0 0 30 41" xmlns="http://www.w3.org/2000/svg" class="ridi_icon"><path d="M6.5 9.2L8 10.7c2.1-2.5 5-5.4 8.5-5.4 4.4 0 6.3 2.7 6.3 6.6 0 5.6-5.3 11.3-10.5 16.3C8.4 32 3.9 35.7.3 38.7L0 40.2h24.6c1.1-2.8 2.2-6 3.4-9l-1.8-.8c-2.4 3.4-3.2 3.9-6.8 3.9H9l6.6-5.6c8.2-6.8 14.1-11.3 14.1-18.3C29.8 4 25.7.2 19.5.2c-3.6 0-6.4 1.4-8.8 3.6L6.5 9.2z"/></svg>

<?xml version="1.0" encoding="UTF-8"?>
<svg width="30px" height="41px" viewBox="0 0 30 41" version="1.1" xmlns="http://www.w3.org/2000/svg">
  <!-- Generator: Sketch 41.2 (35397) - http://www.bohemiancoding.com/sketch -->
  <title>minion_pro_2</title>
  <desc>Created with Sketch.</desc>
  <defs></defs>
  <g id="Page-1" stroke="none" stroke-width="1" fill="none" fill-rule="evenodd">
    <g id="minion_pro_2" fill="#000000">
      <g id="레이어_1">
        <path d="M6.5,9.2 L8,10.7 C10.1,8.2 13,5.3 16.5,5.3 C20.9,5.3 22.8,8 22.8,11.9 C22.8,17.5 17.5,23.2 12.3,28.2 C8.4,32 3.9,35.7 0.3,38.7 L0,40.2 L24.6,40.2 C25.7,37.4 26.8,34.2 28,31.2 L26.2,30.4 C23.8,33.8 23,34.3 19.4,34.3 L9,34.3 L15.6,28.7 C23.8,21.9 29.7,17.4 29.7,10.4 C29.8,4 25.7,0.2 19.5,0.2 C15.9,0.2 13.1,1.6 10.7,3.8 L6.5,9.2 Z" id="Shape"></path>
      </g>
    </g>
  </g>
</svg>
